svgs/sharp-light/hospitals.svg

<svg xmlns="http://www.w3.org/2000/svg" viewBox="0 0 576 512"><!--! Font Awesome Pro 6.6.0 by @fontawesome - https://fontawesome.com License - https://fontawesome.com/license (Commercial License) Copyright 2024 Fonticons, Inc. --><path d="M544 32L288 32l0 32-32 0 0-32 0-32 32 0L544 0l32 0 0 32 0 448 0 32-32 0-224 0 0-32 224 0 0-64-224 0 0-32 224 0 0-64-224 0 0-32 224 0 0-256zM448 80l0 48 48 0 0 32-48 0 0 48-32 0 0-48-48 0 0-32 48 0 0-48 32 0zM256 128L32 128l0 224 224 0 0-224zM32 480l224 0 0-96L32 384l0 96zm96-304l32 0 0 48 48 0 0 32-48 0 0 48-32 0 0-48-48 0 0-32 48 0 0-48zM32 96l224 0 32 0 0 32 0 352 0 32-32 0L32 512 0 512l0-32L0 128 0 96l32 0z"/></svg>

<svg xmlns="http://www.w3.org/2000/svg" viewBox="0 0 576 512"><!--! Font Awesome Pro 6.4.0 by @fontawesome - https://fontawesome.com License - https://fontawesome.com/license (Commercial License) Copyright 2023 Fonticons, Inc. --><path d="M544 32H288V64H256V32 0h32H544h32V32 480v32H544 320V480H544V416H320V384H544V320H320V288H544V32zM448 80v48h48v32H448v48H416V160H368V128h48V80h32zM256 128H32V352H256V128zM32 480H256V384H32v96zm96-304h32v48h48v32H160v48H128V256H80V224h48V176zM32 96H256h32v32V480v32H256 32 0V480 128 96H32z"/></svg>
